icons/desktop/16/svg/shield-exclamation-mark-16.svg

<svg width="16" height="16" viewBox="0 0 16 16" fill="none" xmlns="http://www.w3.org/2000/svg">
<path d="M8.00001 16C7.57001 16 7.14001 15.89 6.76001 15.67C5.12001 14.74 3.61001 13.31 2.50001 11.64C1.93001 10.78 1.53001 9.73 1.31001 8.53L0.75001 5.51C0.55001 4.44 1.06001 3.38 2.02001 2.86L6.75001 0.3C7.49001 -0.1 8.38001 -0.1 9.12001 0.3L13.97 2.91C14.93 3.43 15.44 4.49 15.24 5.57L14.69 8.54C14.47 9.74 14.07 10.78 13.5 11.64C12.4 13.31 10.89 14.75 9.24001 15.68C8.86001 15.9 8.43001 16.01 8.00001 16.01V16ZM7.94001 1.5C7.78001 1.5 7.61001 1.54 7.46001 1.62L2.74001 4.18C2.36001 4.39 2.15001 4.81 2.23001 5.24L2.79001 8.26C2.98001 9.26 3.30001 10.13 3.76001 10.82C4.73001 12.3 6.06001 13.56 7.50001 14.37C7.81001 14.54 8.19001 14.54 8.50001 14.37C9.94001 13.55 11.27 12.29 12.25 10.81C12.71 10.12 13.03 9.26 13.22 8.26L13.77 5.29C13.85 4.86 13.65 4.43 13.26 4.23L8.41001 1.62C8.26001 1.54 8.10001 1.5 7.94001 1.5Z" fill="black"/>
<path d="M7.25 4.5H8.75V8.5H7.25V4.5Z" fill="black"/>
<path d="M7.25 10H8.75V11.5H7.25V10Z" fill="black"/>
</svg>

<!-- This Source Code Form is subject to the terms of the Mozilla Public
   - License, v. 2.0. If a copy of the MPL was not distributed with this
   - file, You can obtain one at http://mozilla.org/MPL/2.0/. -->
<svg xmlns="http://www.w3.org/2000/svg" width="16" height="16" fill="context-fill" fill-opacity="context-fill-opacity" viewBox="0 0 16 16">
    <path d="M8 16c-.43 0-.86-.11-1.24-.33-1.64-.93-3.15-2.36-4.26-4.03-.57-.86-.97-1.91-1.19-3.11L.75 5.51c-.2-1.07.31-2.13 1.27-2.65L6.75.3c.74-.4 1.63-.4 2.37 0l4.85 2.61a2.49 2.49 0 0 1 1.27 2.66l-.55 2.97c-.22 1.2-.62 2.24-1.19 3.1-1.1 1.67-2.61 3.11-4.26 4.04-.38.22-.81.33-1.24.33zM7.94 1.5c-.16 0-.33.04-.48.12L2.74 4.18a1 1 0 0 0-.51 1.06l.56 3.02c.19 1 .51 1.87.97 2.56.97 1.48 2.3 2.74 3.74 3.55.31.17.69.17 1 0 1.44-.82 2.77-2.08 3.75-3.56.46-.69.78-1.55.97-2.55l.55-2.97a.98.98 0 0 0-.51-1.06L8.41 1.62a1 1 0 0 0-.47-.12" />
    <path d="M7.25 4.5h1.5v4h-1.5zm0 5.5h1.5v1.5h-1.5z" />
</svg>
